plasma/desktoptheme/Materia/icons/ring.svg

<svg xmlns="http://www.w3.org/2000/svg" width="32" height="32" version="1.1">
 <g id="ring-kde">
  <rect style="opacity:0.001" width="32" height="32" x="0" y="0"/>
  <path style="opacity:0.2" d="M 22.962891 17.039062 L 25.154297 21.730469 C 29.290661 20.869114 29.926702 19.577639 29.951172 19.505859 C 29.975652 19.434082 30 19.385751 30 19.337891 L 30 19.050781 C 30 19.050781 29.990192 19.036432 29.974609 19.015625 L 29.974609 19.361328 C 28.974442 18.383594 25.764591 17.506038 22.962891 17.039062 z"/>
  <path style="opacity:0.2" d="M 22.902344 16.880859 L 19.410156 21.673828 C 21.672843 24.382063 24.024282 26.523307 25.796875 26.988281 C 25.845353 26.995532 25.894342 27.001953 25.9375 27.001953 C 25.98645 26.978023 26.010686 26.930666 26.035156 26.882812 C 26.108586 26.787102 27.454791 24.633061 22.902344 16.880859 z"/>
  <path style="opacity:0.2" d="M 6.9941406 20.722656 L 6.6015625 21.857422 C 5.1575063 25.613891 5.8924552 26.787107 5.9414062 26.882812 C 5.9658822 26.930673 5.9901115 26.97803 6.0390625 27.001953 C 6.1369645 27.001953 6.2341292 26.979008 6.3320312 26.955078 C 6.3320312 26.955078 6.3358544 26.955059 6.3359375 26.955078 C 7.6380844 26.592017 9.5429049 25.457059 12.351562 22.226562 L 6.9941406 20.722656 z"/>
  <path style="opacity:0.2" d="M 6.8216784,12.167122 C 5.2797203,8.2910214 6.0384616,7.0707674 6.0874126,6.9989877 6.1853147,6.8793549 6.3076922,6.7836488 6.4300697,6.7118691 L 10.688811,4.056022 c -0.367133,1.6987851 0.562937,4.3067793 2.006993,7.345451 z"/>
  <ellipse style="fill:#4b5b90" cx="16" cy="15.997" rx="8.4" ry="8.208"/>
  <path style="fill:#4767b5" d="M 22.706294,15.490779 C 29.094406,16.495695 30,18.05092 30,18.05092 c 0,0.09571 0,0.191413 0,0.287118 0,0.04786 -0.02447,0.09571 -0.04895,0.167487 -0.02447,0.07178 -0.660839,1.363813 -4.797203,2.225168 z"/>
  <path style="fill:#4b5b90" d="m 6.6013989,20.857375 c -1.4440562,3.756469 -0.7097906,4.92887 -0.6608395,5.024576 0.024476,0.04786 0.048951,0.09571 0.097902,0.119633 0.097902,0 0.1958041,-0.02393 0.2937061,-0.04786 0,0 2.6681578,0.611994 5.7275985,-3.646932 v 0 L 13.062937,21.42456 6.9938327,19.722471 Z"/>
  <path style="fill:#2f4479" d="m 16.146853,6.525372 c -3.5,-3.7325421 -5.188811,-3.5172032 -5.286713,-3.5172032 -0.04895,0 -0.122378,0.023926 -0.171329,0.047853 -0.122378,0.047853 -0.244755,0.4306779 -0.244755,0.4306779 0,0 -0.7342658,2.0816099 2.227273,7.6325703 z"/>
  <path style="fill:#2f4479" d="m 19.206294,20.953081 c 4.748251,5.311695 6.412587,5.000649 6.412587,5.000649 0.0979,0.02393 0.22028,0.04786 0.318182,0.04786 0.04895,-0.02393 0.07343,-0.07178 0.0979,-0.119633 0.07343,-0.09571 1.41958,-2.249096 -3.132867,-10.001298 z"/>
  <path style="fill:#4767b5" d="M 13.062937,21.424564 C 3.2727273,21.017812 2.0979021,18.625157 2.0489511,18.505525 2.0244755,18.457672 2,18.409818 2,18.338038 c 0.024475,-0.167485 0.3671329,-0.47853 0.3671329,-0.47853 0,0 2.5944055,-1.555226 6.9265731,-2.392655 z"/>
  <path style="fill:#4b5b90" d="m 19.818181,10.545032 c 2.569931,-5.9098577 1.566435,-7.2497446 1.566435,-7.2497446 -0.02448,-0.07178 -0.04895,-0.1674858 -0.07343,-0.2392655 -0.04895,-0.023926 -0.0979,-0.023926 -0.171329,-0.047853 -0.122378,-0.023926 -2.79021,-0.3588982 -8.419581,7.3454501 z"/>
  <path style="fill:#0084db" d="M 6.8216784,11.167122 C 5.2797203,7.2910213 6.0384616,6.0707673 6.0874126,5.9989876 6.1853147,5.8793548 6.3076922,5.7836487 6.4300697,5.711869 L 10.688811,3.0560219 c -0.367133,1.6987851 0.562937,4.3067793 2.006993,7.3454511 z"/>
  <path style="fill:#0cb4ff" d="M 20.332758,10.177476 C 19.598492,10.15355 17.370629,10.044524 16,10.044524 3.493007,10.044524 2.1223776,12.667446 2.0489511,12.811005 2,12.954565 2,13.098124 2,13.26561 v 5.120282 c 1.2237762,-1.196328 3.8916083,-2.033757 7.146853,-2.512288 2.104895,-0.287119 4.20979,-0.454605 6.339161,-0.478531 l 2.751346,0.07187 c 0.562737,0.0147 2.829663,-5.241613 2.095398,-5.289467 z"/>
  <path style="fill:#0cb4ff" d="m 20.984491,15.766357 c 3.036291,0.299392 7.742782,1.375354 8.991033,2.595608 v -4.928869 c 0,-0.143559 -0.02447,-0.311045 -0.04895,-0.454605 -0.02447,-0.07178 -1.287882,-2.006361 -6.777732,-2.400069 z"/>
  <path style="opacity:0.2" d="m 21.311524,4.0561127 c 0.611887,2.823333 -1.810855,8.2780343 -5.188477,13.2786833 -5.241563,7.487859 -8.2730525,9.307313 -10.0597658,9.690138 l 4.3804688,2.776245 c 0.122377,0.07178 0.270138,0.143195 0.416992,0.191051 0.0979,0 2.595401,0.563008 8.810157,-7.895867 0.244755,-0.263192 0.857034,-1.243355 1.322069,-1.937225 C 27.797165,9.9185741 26.133192,7.2378988 26.059766,7.118266 25.961864,6.9986333 25.838979,6.9028018 25.716601,6.8310221 Z"/>
  <path style="opacity:0.2" d="M 2.4667969 19 C 2.2966571 19.123661 2.1398013 19.250374 2.0039062 19.382812 C 2.0115474 19.430703 2.029985 19.469019 2.0488281 19.505859 C 2.0977791 19.625491 3.2722903 22.019029 13.0625 22.425781 L 12.408203 21.392578 C 5.7102239 21.039485 3.2998454 19.729614 2.4667969 19 z"/>
  <path style="fill:#ffffff;opacity:0.2" d="M 16 10.044922 C 3.493007 10.044922 2.1222546 12.666988 2.0488281 12.810547 C 1.999877 12.954107 2 13.098139 2 13.265625 L 2 14.265625 C 2 14.098139 1.999877 13.954107 2.0488281 13.810547 C 2.1222546 13.666988 3.493007 11.044922 16 11.044922 C 17.370629 11.044922 19.597765 11.153804 20.332031 11.177734 C 20.339384 11.178214 20.344806 11.18208 20.351562 11.183594 C 20.504636 10.602673 20.533515 10.190866 20.332031 10.177734 C 19.597765 10.153808 17.370629 10.044922 16 10.044922 z M 23.148438 10.578125 L 20.984375 15.765625 C 21.109071 15.777921 21.250887 15.799581 21.380859 15.814453 L 23.148438 11.578125 C 28.638287 11.971833 29.901311 13.906736 29.925781 13.978516 C 29.950261 14.122076 29.974609 14.290035 29.974609 14.433594 L 29.974609 13.433594 C 29.974609 13.290035 29.950261 13.122076 29.925781 12.978516 C 29.901311 12.906736 28.638288 10.971833 23.148438 10.578125 z"/>
  <path style="fill:#00ccfa" d="m 21.311524,3.0561128 c 0.611887,2.823333 -1.810855,8.2780342 -5.188477,13.2786832 -5.241563,7.487859 -8.2730525,9.307313 -10.0597658,9.690138 l 4.3804688,2.776245 c 0.122377,0.07178 0.270138,0.143195 0.416992,0.191051 0.0979,0 2.595401,0.563008 8.810157,-7.895867 0.244755,-0.263192 0.857034,-1.243355 1.322069,-1.937225 C 27.797165,8.9185742 26.133192,6.2378989 26.059766,6.1182661 25.961864,5.9986334 25.838979,5.9028019 25.716601,5.8310222 Z"/>
  <path style="opacity:0.2" d="m 15.485937,16.395575 c -2.117364,0.02379 -4.211073,0.188793 -6.3041008,0.47295 0.4560731,0.775769 1.3855508,2.282763 1.9714838,3.170371 6.804196,10.240563 9.98674,9.834307 10.133594,9.810379 0.146853,-0.04785 0.293247,-0.120606 0.415625,-0.192386 l 4.234179,-2.631955 C 23.164013,26.426708 18.87824,21.505106 15.777149,16.737596 l -0.191407,-0.342021 z"/>
  <path style="fill:#ffffff;opacity:0.2" d="M 21.3125 3.0566406 C 21.381483 3.3749376 21.405567 3.7305636 21.400391 4.1113281 L 25.716797 6.8300781 C 25.839175 6.9018578 25.962645 6.9995079 26.060547 7.1191406 C 26.07961 7.1502006 26.202309 7.3584603 26.259766 7.8222656 C 26.364726 6.6363077 26.089902 6.1669692 26.060547 6.1191406 C 25.962645 5.9995079 25.839175 5.9018578 25.716797 5.8300781 L 21.3125 3.0566406 z M 21.380859 4.5175781 C 21.159939 7.5296123 18.988633 12.091416 16.123047 16.333984 C 10.881484 23.821843 7.8492133 25.642566 6.0625 26.025391 L 7.09375 26.677734 C 8.9512172 25.851386 11.775954 23.544044 16.123047 17.333984 C 19.325435 12.592773 21.667766 7.4454302 21.380859 4.5175781 z"/>
  <path style="fill:#0084db" d="m 15.485937,15.395575 c -2.117364,0.02379 -4.211073,0.188793 -6.3041008,0.47295 0.4560731,0.775769 1.3855508,2.282763 1.9714838,3.170371 6.804196,10.240563 9.98674,9.834307 10.133594,9.810379 0.146853,-0.04785 0.293247,-0.120606 0.415625,-0.192386 l 4.234179,-2.631955 C 23.164013,25.426708 18.87824,20.505106 15.777149,15.737596 l -0.191407,-0.342021 z"/>
  <path style="opacity:0.2" d="M 15.486328 15.394531 C 13.356957 15.418457 11.251379 15.585928 9.1464844 15.873047 C 5.8912397 16.351578 3.2237762 17.190391 2 18.386719 L 2 19.386719 C 3.2237762 18.190391 5.8912397 17.351578 9.1464844 16.873047 C 11.251379 16.585928 13.356957 16.418457 15.486328 16.394531 L 16.068359 16.410156 C 16.08696 16.383648 16.10439 16.360636 16.123047 16.333984 C 16.32624 16.033153 16.524875 15.731181 16.720703 15.427734 L 15.486328 15.394531 z M 22.945312 16.037109 C 22.772852 16.33172 22.590412 16.634152 22.400391 16.945312 C 25.318116 17.382522 28.907402 18.318057 29.974609 19.361328 L 29.974609 18.361328 C 28.972539 17.381732 25.750428 16.50301 22.945312 16.037109 z"/>
  <path style="fill:#ffffff;opacity:0.1" d="M 10.689453 3.0566406 L 6.4296875 5.7109375 C 6.30731 5.7827172 6.1857927 5.8784141 6.0878906 5.9980469 C 6.0584777 6.0411768 5.7755418 6.5051439 5.8867188 7.7050781 C 5.9427928 7.2340814 6.0687253 7.0261502 6.0878906 6.9980469 C 6.1857927 6.8784141 6.30731 6.7827172 6.4296875 6.7109375 L 10.615234 4.1035156 C 10.598264 3.724975 10.620734 3.3746011 10.689453 3.0566406 z M 10.636719 4.3789062 C 10.468571 5.819931 11.099286 7.8261912 12.121094 10.142578 C 12.2673 10.134811 12.414005 10.126035 12.564453 10.119141 C 11.524896 7.9000661 10.777528 5.9223578 10.636719 4.3789062 z M 15.482422 15.394531 C 15.311502 15.396466 15.14132 15.400525 14.970703 15.404297 L 15.777344 16.738281 C 18.522929 20.959249 22.19703 25.297219 24.927734 26.652344 L 25.9375 26.025391 C 23.164795 25.427165 18.878435 20.505791 15.777344 15.738281 L 15.585938 15.396484 L 15.560547 15.396484 L 15.486328 15.396484 L 15.482422 15.394531 z"/>
 </g>
 <g id="22-22-ring-kde">
  <rect style="opacity:0.001" width="22" height="22" x="32" y="10"/>
  <path d="M 36.533636,16.114499 35.523618,17.856218 C 34.850273,19.017365 48.79306,27.046717 49.466404,25.885572 L 50.476382,24.14383 C 51.14973,22.982685 37.206941,14.953331 36.533596,16.114475" style="opacity:0.6;fill:#dfdfdf"/>
  <path d="M 49.466364,16.114499 50.476382,17.856218 C 51.149727,19.017365 37.20694,27.046717 36.533596,25.885572 L 35.523618,24.14383 C 34.85027,22.982685 48.793059,14.953331 49.466404,16.114475" style="opacity:0.35;fill:#dfdfdf"/>
  <path d="M 43.985417,13.00527 41.985536,13.000025 C 40.652281,12.996529 40.68133,28.991279 42.014582,28.994775 L 44.014464,28.999975 C 45.347719,29.003475 45.318671,13.008721 43.985418,13.005224" style="fill:#dfdfdf"/>
 </g>
</svg>

<?xml version="1.0" encoding="UTF-8"?>
<svg width="32" height="32" version="1.1" xmlns="http://www.w3.org/2000/svg">
 <g id="ring-kde">
  <rect width="32" height="32" opacity=".001"/>
  <path d="m22.963 17.039 2.1914 4.6914c4.1364-0.86136 4.7724-2.1528 4.7969-2.2246 0.02448-0.071777 0.048828-0.12011 0.048828-0.16797v-0.28711s-0.009808-0.014349-0.025391-0.035156v0.3457c-1.0002-0.97773-4.21-1.8553-7.0117-2.3223z" opacity=".2"/>
  <path d="m22.902 16.881-3.4922 4.793c2.2627 2.7082 4.6141 4.8495 6.3867 5.3145 0.048478 0.007251 0.097467 0.013672 0.14062 0.013672 0.04895-0.02393 0.073186-0.071287 0.097656-0.11914 0.07343-0.09571 1.4196-2.2498-3.1328-10.002z" opacity=".2"/>
  <path d="m6.9941 20.723-0.39258 1.1348c-1.4441 3.7565-0.70911 4.9297-0.66016 5.0254 0.024476 0.047861 0.048705 0.095218 0.097656 0.11914 0.097902 0 0.19507-0.022945 0.29297-0.046875 0 0 0.0038232-1.9e-5 0.0039063 0 1.3021-0.36306 3.207-1.498 6.0156-4.7285l-5.3574-1.5039z" opacity=".2"/>
  <path d="m6.8217 12.167c-1.542-3.8761-0.78322-5.0964-0.73427-5.1681 0.097902-0.11963 0.22028-0.21534 0.34266-0.28712l4.2587-2.6558c-0.36713 1.6988 0.56294 4.3068 2.007 7.3455z" opacity=".2"/>
  <ellipse cx="16" cy="15.997" rx="8.4" ry="8.208" fill="#4b5b90"/>
  <path d="m22.706 15.491c6.3881 1.0049 7.2937 2.5601 7.2937 2.5601v0.28712c0 0.04786-0.02447 0.09571-0.04895 0.16749-0.02447 0.07178-0.66084 1.3638-4.7972 2.2252z" fill="#4767b5"/>
  <path d="m6.6014 20.857c-1.4441 3.7565-0.70979 4.9289-0.66084 5.0246 0.024476 0.04786 0.048951 0.09571 0.097902 0.11963 0.097902 0 0.1958-0.02393 0.29371-0.04786 0 0 2.6682 0.61199 5.7276-3.6469l1.0032-0.88223-6.0691-1.7021z" fill="#4b5b90"/>
  <path d="m16.147 6.5254c-3.5-3.7325-5.1888-3.5172-5.2867-3.5172-0.04895 0-0.12238 0.023926-0.17133 0.047853-0.12238 0.047853-0.24476 0.43068-0.24476 0.43068s-0.73427 2.0816 2.2273 7.6326z" fill="#2f4479"/>
  <path d="m19.206 20.953c4.7483 5.3117 6.4126 5.0006 6.4126 5.0006 0.0979 0.02393 0.22028 0.04786 0.31818 0.04786 0.04895-0.02393 0.07343-0.07178 0.0979-0.11963 0.07343-0.09571 1.4196-2.2491-3.1329-10.001z" fill="#2f4479"/>
  <path d="m13.063 21.425c-9.7902-0.40675-10.965-2.7994-11.014-2.919-0.024476-0.047853-0.048951-0.095707-0.048951-0.16749 0.024475-0.16748 0.36713-0.47853 0.36713-0.47853s2.5944-1.5552 6.9266-2.3927z" fill="#4767b5"/>
  <path d="m19.818 10.545c2.5699-5.9099 1.5664-7.2497 1.5664-7.2497-0.02448-0.07178-0.04895-0.16749-0.07343-0.23927-0.04895-0.023926-0.0979-0.023926-0.17133-0.047853-0.12238-0.023926-2.7902-0.3589-8.4196 7.3455z" fill="#4b5b90"/>
  <path d="m6.8217 11.167c-1.542-3.8761-0.78322-5.0964-0.73427-5.1681 0.097902-0.11963 0.22028-0.21534 0.34266-0.28712l4.2587-2.6558c-0.36713 1.6988 0.56294 4.3068 2.007 7.3455z" fill="#0084db"/>
  <path d="m20.333 10.177c-0.73427-0.023926-2.9621-0.13295-4.3328-0.13295-12.507 0-13.878 2.6229-13.951 2.7665-0.048951 0.14356-0.048951 0.28712-0.048951 0.4546v5.1203c1.2238-1.1963 3.8916-2.0338 7.1469-2.5123 2.1049-0.28712 4.2098-0.4546 6.3392-0.47853l2.7513 0.07187c0.56274 0.0147 2.8297-5.2416 2.0954-5.2895z" fill="#0cb4ff"/>
  <path d="m20.984 15.766c3.0363 0.29939 7.7428 1.3754 8.991 2.5956v-4.9289c0-0.14356-0.02447-0.31104-0.04895-0.4546-0.02447-0.07178-1.2879-2.0064-6.7777-2.4001z" fill="#0cb4ff"/>
  <path d="m21.312 4.0561c0.61189 2.8233-1.8109 8.278-5.1885 13.279-5.2416 7.4879-8.2731 9.3073-10.06 9.6901l4.3805 2.7762c0.12238 0.07178 0.27014 0.1432 0.41699 0.19105 0.0979 0 2.5954 0.56301 8.8102-7.8959 0.24476-0.26319 0.85703-1.2434 1.3221-1.9372 6.8042-10.241 5.1402-12.921 5.0668-13.041-0.097902-0.11963-0.22079-0.21546-0.34316-0.28724z" opacity=".2"/>
  <path d="m2.4668 19c-0.17014 0.12366-0.327 0.25037-0.46289 0.38281 0.0076412 0.047891 0.026079 0.086207 0.044922 0.12305 0.048951 0.11963 1.2235 2.5132 11.014 2.9199l-0.6543-1.0332c-6.698-0.35309-9.1084-1.663-9.9414-2.3926z" opacity=".2"/>
  <path d="m16 10.045c-12.507 0-13.878 2.6221-13.951 2.7656-0.048951 0.14356-0.048828 0.28759-0.048828 0.45508v1c0-0.16749-1.23e-4 -0.31152 0.048828-0.45508 0.073426-0.14356 1.4442-2.7656 13.951-2.7656 1.3706 0 3.5978 0.10888 4.332 0.13281 0.007353 4.8e-4 0.012775 0.004346 0.019531 0.00586 0.15307-0.58092 0.18195-0.99273-0.019531-1.0059-0.73427-0.023926-2.9614-0.13281-4.332-0.13281zm7.1484 0.5332-2.1641 5.1875c0.1247 0.012296 0.26651 0.033956 0.39648 0.048828l1.7676-4.2363c5.4898 0.39371 6.7529 2.3286 6.7773 2.4004 0.02448 0.14356 0.048828 0.31152 0.048828 0.45508v-1c0-0.14356-0.024348-0.31152-0.048828-0.45508-0.02447-0.07178-1.2875-2.0067-6.7773-2.4004z" fill="#fff" opacity=".2"/>
  <path d="m21.312 3.0561c0.61189 2.8233-1.8109 8.278-5.1885 13.279-5.2416 7.4879-8.2731 9.3073-10.06 9.6901l4.3805 2.7762c0.12238 0.07178 0.27014 0.1432 0.41699 0.19105 0.0979 0 2.5954 0.56301 8.8102-7.8959 0.24476-0.26319 0.85703-1.2434 1.3221-1.9372 6.8042-10.241 5.1402-12.921 5.0668-13.041-0.097902-0.11963-0.22079-0.21546-0.34316-0.28724z" fill="#00ccfa"/>
  <path d="m15.486 16.396c-2.1174 0.02379-4.2111 0.18879-6.3041 0.47295 0.45607 0.77577 1.3856 2.2828 1.9715 3.1704 6.8042 10.241 9.9867 9.8343 10.134 9.8104 0.14685-0.04785 0.29325-0.12061 0.41562-0.19239l4.2342-2.632c-2.7727-0.59823-7.0585-5.5198-10.16-10.287l-0.19141-0.34202z" opacity=".2"/>
  <path d="m21.312 3.0566c0.068983 0.3183 0.093067 0.67392 0.087891 1.0547l4.3164 2.7188c0.12238 0.07178 0.24585 0.16943 0.34375 0.28906 0.019063 0.03106 0.14176 0.23932 0.19922 0.70312 0.10496-1.186-0.16986-1.6553-0.19922-1.7031-0.097902-0.11963-0.22137-0.21728-0.34375-0.28906l-4.4043-2.7734zm0.068359 1.4609c-0.22092 3.012-2.3922 7.5738-5.2578 11.816-5.2416 7.4879-8.2738 9.3086-10.061 9.6914l1.0312 0.65234c1.8575-0.82635 4.6822-3.1337 9.0293-9.3438 3.2024-4.7412 5.5447-9.8886 5.2578-12.816z" fill="#fff" opacity=".2"/>
  <path d="m15.486 15.396c-2.1174 0.02379-4.2111 0.18879-6.3041 0.47295 0.45607 0.77577 1.3856 2.2828 1.9715 3.1704 6.8042 10.241 9.9867 9.8343 10.134 9.8104 0.14685-0.04785 0.29325-0.12061 0.41562-0.19239l4.2342-2.632c-2.7727-0.59823-7.0585-5.5198-10.16-10.287l-0.19141-0.34202z" fill="#0084db"/>
  <path d="m15.486 15.395c-2.1294 0.023926-4.2349 0.1914-6.3398 0.47852-3.2552 0.47853-5.9227 1.3173-7.1465 2.5137v1c1.2238-1.1963 3.8912-2.0351 7.1465-2.5137 2.1049-0.28712 4.2105-0.45459 6.3398-0.47852l0.58203 0.015625c0.018601-0.026508 0.036031-0.04952 0.054688-0.076172 0.20319-0.30083 0.40183-0.6028 0.59766-0.90625l-1.2344-0.033203zm7.459 0.64258c-0.17246 0.29461-0.3549 0.59704-0.54492 0.9082 2.9177 0.43721 6.507 1.3727 7.5742 2.416v-1c-1.0021-0.9796-4.2242-1.8583-7.0293-2.3242z" opacity=".2"/>
  <path d="m10.689 3.0566-4.2598 2.6543c-0.12238 0.07178-0.24389 0.16748-0.3418 0.28711-0.029413 0.04313-0.31235 0.5071-0.20117 1.707 0.056074-0.471 0.18201-0.67893 0.20117-0.70703 0.097902-0.11963 0.21942-0.21533 0.3418-0.28711l4.1855-2.6074c-0.01697-0.37854 0.0055-0.72891 0.074219-1.0469zm-0.052734 1.3223c-0.16815 1.441 0.46257 3.4473 1.4844 5.7637 0.14621-0.007767 0.29291-0.016543 0.44336-0.023437-1.0396-2.2191-1.7869-4.1968-1.9277-5.7402zm4.8457 11.016c-0.17092 0.001935-0.3411 0.005994-0.51172 0.009766l0.80664 1.334c2.7456 4.221 6.4197 8.5589 9.1504 9.9141l1.0098-0.62695c-2.7727-0.59823-7.0591-5.5196-10.16-10.287l-0.19141-0.3418h-0.025391-0.074219l-0.003906-0.001953z" fill="#fff" opacity=".1"/>
 </g>
 <g id="22-22-ring-kde">
  <rect x="32" y="10" width="22" height="22" opacity=".001"/>
  <path d="m36.534 16.114-1.01 1.7417c-0.67334 1.1611 13.269 9.1905 13.943 8.0294l1.01-1.7417c0.67335-1.1611-13.269-9.1905-13.943-8.0294" fill="#dfdfdf" opacity=".6"/>
  <path d="m49.466 16.114 1.01 1.7417c0.67334 1.1611-13.269 9.1905-13.943 8.0294l-1.01-1.7417c-0.67335-1.1611 13.269-9.1905 13.943-8.0294" fill="#dfdfdf" opacity=".35"/>
  <path d="m43.985 13.005-1.9999-0.005245c-1.3333-0.003496-1.3042 15.991 0.029046 15.995l1.9999 0.0052c1.3333 0.0035 1.3042-15.991-0.029046-15.995" fill="#dfdfdf"/>
 </g>
</svg>
